X: 28205
T: Mrs. Crotty's Christening
R: reel
M: 4/4
K: Dmajor
d3A BAFG|ABdA BAFA|BEED E2FA|(3Bcd ec dcBA|
d3A BAFG|ABdA BAFA|BEED E2FA|(3Bcd ef d4||
dfec d2Ad|defa gece|d2fd Adfa|bgaf gfef|
dfec d2Ad|defa gece|defd Adfa|bfaf gfec||

